images/humo.svg

<svg width="136" height="68" viewBox="0 0 136 68" fill="none" xmlns="http://www.w3.org/2000/svg">
<mask id="mask0_5_726" style="mask-type:luminance" maskUnits="userSpaceOnUse" x="21" y="22" width="94" height="24">
<path d="M114.813 22.1777H21V45.8224H114.813V22.1777Z" fill="white"/>
</mask>
<g mask="url(#mask0_5_726)">
<path d="M90.281 43.096C89.4247 43.6952 88.4627 43.5671 87.5808 43.2943C86.7411 43.0348 86.5477 42.2017 86.47 41.4057C86.4262 40.9603 86.4592 40.5065 86.4485 40.0569C86.3592 36.3194 86.2683 32.582 86.1757 28.8445C86.1757 28.7478 86.1567 28.6511 86.141 28.5064C85.8724 28.5891 85.8294 28.804 85.76 28.9685C84.9897 30.7934 84.007 32.5109 83.1077 34.2705C83.0592 34.3806 83.0172 34.4935 82.9821 34.6085C82.516 35.4929 82.0358 36.369 81.5895 37.2633C81.1969 38.051 80.6439 38.6196 79.7158 38.594C78.8066 38.5683 78.2479 38.0228 77.8388 37.2352C76.6866 35.016 75.3592 32.8902 74.2848 30.6273C74.0608 30.1537 73.8302 29.6834 73.5946 29.1941C73.3012 29.3305 73.4079 29.5619 73.4037 29.7379C73.3156 33.6589 73.2307 37.5796 73.1492 41.5C73.1293 42.4166 72.5516 43.2241 71.7962 43.4117C70.887 43.6381 70.0919 43.3075 69.6473 42.5273C69.434 42.1546 69.3993 41.7363 69.4257 41.3405C69.5406 39.4825 69.4497 37.6212 69.5481 35.7648C69.7084 32.7249 69.739 29.6826 69.796 26.6402C69.8126 25.8062 69.844 24.9649 69.9754 24.1433C70.1192 23.2391 70.7663 22.7449 71.6838 22.7002C72.3152 22.6696 72.95 22.6176 73.5798 22.6498C74.3294 22.6878 75.0146 22.8763 75.403 23.6474C76.6949 26.2096 78.0082 28.766 79.3157 31.3232C79.5381 31.7579 79.7703 32.1877 80.0001 32.6183C80.1447 32.8886 80.2439 32.9357 80.4423 32.6183C81.1721 31.4612 81.6647 30.1859 82.306 28.9817C82.9053 27.8618 83.4284 26.6923 83.9838 25.5418C84.3227 24.8954 84.6583 24.2474 85.0013 23.6036C85.3195 23.0052 85.8493 22.7358 86.5014 22.711C87.1345 22.687 87.7692 22.6961 88.4024 22.6977C89.657 22.6977 90.3909 23.3738 90.4562 24.6276C90.5265 25.9501 90.5554 27.2807 90.6042 28.6081C90.7596 32.8508 90.9155 37.095 91.072 41.3405C91.0992 42.0587 90.8893 42.6703 90.281 43.096Z" fill="url(#paint0_linear_5_726)"/>
<path d="M114.359 28.9557C113.789 26.7497 112.512 25.0025 110.546 23.7727C109.389 23.0453 108.109 22.6668 106.804 22.3387L106.441 22.3164C106.258 22.3114 106.074 22.3164 105.892 22.3006C104.422 22.1411 102.932 22.1031 101.497 22.4081C98.1437 23.1214 95.6451 25.0025 94.2913 28.2143C93.5161 30.0541 93.3574 31.9981 93.5524 33.9817C93.8252 36.7637 94.7715 39.2391 96.7295 41.288C97.3849 41.9732 98.2172 42.4054 98.9702 42.9468C99.005 42.9499 99.0388 42.9603 99.0694 42.9774C100.79 43.7551 102.595 44.0411 104.476 43.9692C108.368 43.8179 111.284 42.0318 113.161 38.6589C114.857 35.6091 115.229 32.3245 114.359 28.9557ZM109.813 33.6858C109.698 35.1685 109.405 36.5901 108.768 37.9307C108.185 39.1581 107.363 40.1706 106.081 40.7408C105.724 40.8995 105.367 41.0425 104.964 40.9979C103.692 41.1632 102.475 41.064 101.403 40.259C101.325 40.2606 101.248 40.239 101.181 40.197C101.115 40.1549 101.062 40.0943 101.03 40.0226L100.909 39.8962C100.365 39.4689 99.8595 39.0101 99.6859 38.2977C99.675 38.2888 99.6664 38.2771 99.6612 38.264C99.656 38.2508 99.6543 38.2365 99.6562 38.2225C99.0685 37.5547 98.9123 36.7025 98.7239 35.8851C98.2387 33.7965 98.1743 31.6815 98.7322 29.6037C99.095 28.2507 99.6083 26.9332 100.897 26.1323V26.1398C100.941 26.1009 100.986 26.0637 101.032 26.0257C101.514 25.4257 102.235 25.2653 102.916 25.1397C103.766 24.9835 104.652 24.8711 105.491 25.2695C105.996 25.2695 106.401 25.529 106.802 25.7835C107.541 26.1406 108.082 26.7415 108.496 27.4027C109.702 29.3177 109.987 31.4459 109.814 33.6825L109.813 33.6858Z" fill="url(#paint1_linear_5_726)"/>
<path d="M65.6627 35.958C65.6503 37.5482 65.2734 39.0616 64.4386 40.4451C63.1559 42.5701 61.1747 43.6148 58.8109 43.8652C57.0529 44.0512 55.2503 44.1371 53.5056 43.671C50.8368 42.9569 48.9821 41.3386 48.1647 38.6434C47.8906 37.7727 47.7178 36.8733 47.6498 35.963C47.6459 32.1578 47.6423 28.3528 47.639 24.5481C47.639 24.4655 47.639 24.3828 47.6432 24.3002L47.6506 24.1787C48.3341 22.4521 50.7541 21.9925 52.0121 23.3439C52.3667 23.7241 52.4096 24.1803 52.4105 24.6514C52.4171 28.169 52.4105 31.6866 52.4229 35.2034C52.4229 36.3556 52.6039 37.4656 53.2709 38.4566C53.804 39.2484 54.5635 39.7145 55.4437 39.9385C56.9199 40.3137 58.3274 40.1302 59.5184 39.0905C60.5218 38.2152 60.9078 37.0408 60.9169 35.7564C60.9417 32.0751 60.9309 28.3938 60.9284 24.7126C60.9284 24.0439 61.1276 23.4728 61.6516 23.0364C62.4856 22.343 64.7221 22.5364 65.3891 23.3811C65.6255 23.6794 65.6759 24.0572 65.6759 24.4241C65.68 28.269 65.6941 32.1139 65.6627 35.958Z" fill="url(#paint2_linear_5_726)"/>
<path d="M43.6818 26.3688C43.6769 31.4816 43.6769 36.5946 43.6818 41.7079C43.6818 42.6535 42.9967 43.3213 42.0553 43.3238C41.5649 43.3238 41.0742 43.3207 40.5833 43.3147C39.4997 43.299 38.9104 42.7221 38.9096 41.6517C38.9096 39.3607 38.8947 37.0696 38.9335 34.7802C38.9443 34.1652 38.7757 33.9694 38.1492 33.9685C35.6143 33.9685 33.0794 33.9206 30.5453 33.8611C30.0651 33.8495 29.8982 33.9669 29.9197 34.4669C30.042 37.2522 30.3924 39.9921 31.4504 42.5981C31.5718 42.8965 31.7653 43.1659 31.9248 43.4494C31.7653 43.8478 31.4958 43.7131 31.2189 43.6048C29.8337 43.0609 28.9725 41.9708 28.2344 40.7533C27.2905 39.2045 26.7632 37.4977 26.4153 35.7331C26.1009 34.217 25.987 32.6662 26.0764 31.1204C26.1491 30.0178 26.3111 29.1103 26.4549 28.0466C26.4754 27.8972 26.5063 27.7495 26.5475 27.6044C26.5657 27.5416 26.5921 27.4813 26.6112 27.4193C26.7286 27.0016 26.8744 26.5923 27.0475 26.1944C27.142 25.9283 27.2622 25.6719 27.4063 25.4291C27.4794 25.2974 27.5688 25.1755 27.6724 25.0662C27.8377 24.891 27.9964 24.7092 28.1575 24.5282C28.3923 24.2653 28.6631 24.0368 28.9617 23.8496C29.3915 23.5802 29.8411 23.3537 30.3668 23.2711C30.9131 23.1884 31.028 23.2793 30.8478 23.7934C30.161 25.7878 29.9916 27.8557 29.9172 29.9434C29.8957 30.5468 30.1073 30.7047 30.6883 30.6989C33.2042 30.6741 35.7193 30.6865 38.2351 30.7047C38.6162 30.7047 38.8914 30.6551 38.8906 30.2088C38.8906 28.4334 39.1708 26.6606 38.9302 24.8836C38.8897 24.586 38.8269 24.2885 38.5608 24.1455C38.0566 23.8761 38.3244 23.6389 38.5608 23.4083C39.8733 22.1379 42.023 22.4834 43.0239 24.1124C43.4527 24.787 43.6809 25.5695 43.6818 26.3688Z" fill="url(#paint3_linear_5_726)"/>
<path d="M23.0232 39.1106C23.2323 40.0686 23.8291 40.8042 24.3539 41.5902C25.0647 42.6555 25.5714 43.4911 26.8111 44.0193C26.8648 44.0482 27.2335 44.2672 27.2872 44.2962L27.4806 44.3788C27.6084 44.4104 27.7288 44.4666 27.8352 44.5441C27.9228 44.6061 28.0087 44.6408 28.0773 44.5317C28.2203 44.3044 27.9616 44.2193 27.7732 44.1598C27.6876 44.1292 27.6087 44.0823 27.5409 44.0217C26.7781 43.2853 25.9871 42.5712 25.4234 41.6588C25.0399 41.0381 24.6911 40.3967 24.3275 39.7644V39.7586C24.0861 39.1426 23.8445 38.5271 23.6026 37.9122C23.52 37.6444 23.4753 37.4816 23.3547 37.1617C23.3481 37.1204 23.3414 37.0981 23.334 37.0576C23.2325 36.3139 23.0862 35.5769 22.896 34.8508L22.8455 34.4797C22.8455 33.6631 22.8455 32.8466 22.8522 32.03C22.8613 30.8172 23.2379 29.6356 23.9324 28.6413C24.2977 28.0852 24.7539 27.5946 25.2821 27.1899C25.2821 27.3693 25.3085 27.4586 25.278 27.5205C24.7911 28.533 24.6655 29.624 24.6002 30.7233C24.4217 33.7268 24.9548 36.6171 26.0706 39.4016C26.6871 40.9397 27.4442 42.3985 28.798 43.4515C29.5814 44.0679 30.4767 44.5268 31.4346 44.8028C31.4883 45.0623 31.2462 45.1896 31.1709 45.3921C29.4642 46.1103 27.7765 45.8599 26.1293 45.2152C23.5439 44.2036 21.9678 42.2315 21.1297 39.652C20.914 38.9908 20.9884 38.1891 21.176 37.5609C21.2866 37.177 21.4921 36.8271 21.7736 36.5435C21.9 36.4187 22.029 36.3212 22.1133 36.3286C22.1903 36.782 22.3274 37.2231 22.5207 37.6403C22.5566 37.7213 22.5883 37.804 22.6158 37.8882C22.6197 37.8978 22.6241 37.9072 22.629 37.9163C22.6635 38.0708 22.7119 38.2219 22.7736 38.3676C22.7976 38.4246 22.8472 38.4651 22.8563 38.5255C22.9737 38.9057 23.0216 39.104 23.0216 39.104" fill="url(#paint4_linear_5_726)"/>
</g>
<defs>
<linearGradient id="paint0_linear_5_726" x1="93.2026" y1="39.9561" x2="70.5962" y2="27.8033" gradientUnits="userSpaceOnUse">
<stop offset="0.33" stop-color="#9C8837"/>
<stop offset="0.56" stop-color="#F7E59E"/>
<stop offset="0.6" stop-color="#F0DE96"/>
<stop offset="0.67" stop-color="#DECB80"/>
<stop offset="0.75" stop-color="#C1AD5D"/>
<stop offset="0.79" stop-color="#B39F4D"/>
</linearGradient>
<linearGradient id="paint1_linear_5_726" x1="120.251" y1="42.252" x2="92.229" y2="25.5661" gradientUnits="userSpaceOnUse">
<stop offset="0.33" stop-color="#9C8837"/>
<stop offset="0.56" stop-color="#F7E59E"/>
<stop offset="0.6" stop-color="#F0DE96"/>
<stop offset="0.67" stop-color="#DECB80"/>
<stop offset="0.75" stop-color="#C1AD5D"/>
<stop offset="0.79" stop-color="#B39F4D"/>
</linearGradient>
<linearGradient id="paint2_linear_5_726" x1="67.8788" y1="38.8222" x2="45.206" y2="24.4961" gradientUnits="userSpaceOnUse">
<stop offset="0.33" stop-color="#9C8837"/>
<stop offset="0.56" stop-color="#F7E59E"/>
<stop offset="0.6" stop-color="#F0DE96"/>
<stop offset="0.67" stop-color="#DECB80"/>
<stop offset="0.75" stop-color="#C1AD5D"/>
<stop offset="0.79" stop-color="#B39F4D"/>
</linearGradient>
<linearGradient id="paint3_linear_5_726" x1="39.3346" y1="35.4867" x2="24.924" y2="24.5096" gradientUnits="userSpaceOnUse">
<stop offset="0.33" stop-color="#9C8837"/>
<stop offset="0.56" stop-color="#F7E59E"/>
<stop offset="0.6" stop-color="#F0DE96"/>
<stop offset="0.67" stop-color="#DECB80"/>
<stop offset="0.75" stop-color="#C1AD5D"/>
<stop offset="0.79" stop-color="#B39F4D"/>
</linearGradient>
<linearGradient id="paint4_linear_5_726" x1="33.7494" y1="42.5824" x2="19.2342" y2="31.7025" gradientUnits="userSpaceOnUse">
<stop offset="0.33" stop-color="#9C8837"/>
<stop offset="0.56" stop-color="#F7E59E"/>
<stop offset="0.6" stop-color="#F0DE96"/>
<stop offset="0.67" stop-color="#DECB80"/>
<stop offset="0.75" stop-color="#C1AD5D"/>
<stop offset="0.79" stop-color="#B39F4D"/>
</linearGradient>
</defs>
</svg>

<svg xmlns="http://www.w3.org/2000/svg" width="136" height="68" fill="none"><mask id="a" width="94" height="24" x="21" y="22" maskUnits="userSpaceOnUse" style="mask-type:luminance"><path fill="#fff" d="M114.813 22.178H21v23.644h93.813V22.178Z"/></mask><g mask="url(#a)"><path fill="url(#b)" d="M90.281 43.096c-.856.6-1.818.471-2.7.198-.84-.26-1.033-1.092-1.111-1.888-.044-.446-.01-.9-.022-1.35-.089-3.737-.18-7.474-.272-11.211 0-.097-.02-.194-.035-.339-.269.083-.312.298-.381.462-.77 1.825-1.753 3.543-2.652 5.302a3.04 3.04 0 0 0-.126.338c-.466.885-.946 1.761-1.392 2.655-.393.788-.946 1.357-1.874 1.331-.91-.026-1.468-.571-1.877-1.359-1.152-2.219-2.48-4.345-3.554-6.608-.224-.473-.455-.944-.69-1.433-.294.137-.187.368-.191.544-.088 3.92-.173 7.842-.255 11.762-.02.917-.597 1.724-1.353 1.912-.909.226-1.704-.105-2.149-.885-.213-.372-.248-.79-.221-1.187.115-1.858.024-3.719.122-5.575.16-3.04.191-6.082.248-9.125.017-.834.048-1.675.18-2.497.143-.904.79-1.398 1.708-1.443.631-.03 1.266-.082 1.896-.05.75.038 1.435.226 1.823.997 1.292 2.563 2.605 5.119 3.913 7.676.222.435.454.865.684 1.295.145.27.244.318.442 0 .73-1.157 1.223-2.432 1.864-3.636.6-1.12 1.122-2.29 1.678-3.44.339-.647.674-1.295 1.017-1.938.319-.599.848-.868 1.5-.893.633-.024 1.268-.015 1.901-.013 1.255 0 1.989.676 2.054 1.93.07 1.322.1 2.653.148 3.98l.468 12.732c.027.719-.183 1.33-.791 1.756Z"/><path fill="url(#c)" d="M114.359 28.956c-.57-2.206-1.847-3.953-3.813-5.183-1.157-.728-2.437-1.106-3.742-1.434l-.363-.023c-.183-.005-.367 0-.549-.015-1.47-.16-2.96-.198-4.395.107-3.353.713-5.852 2.595-7.206 5.806-.775 1.84-.934 3.784-.739 5.768.273 2.782 1.22 5.257 3.177 7.306.656.685 1.488 1.117 2.241 1.659a.249.249 0 0 1 .1.03c1.72.778 3.525 1.064 5.406.992 3.892-.151 6.808-1.937 8.685-5.31 1.696-3.05 2.068-6.334 1.198-9.703Zm-4.546 4.73c-.115 1.483-.408 2.904-1.045 4.245-.583 1.227-1.405 2.24-2.687 2.81-.357.159-.714.301-1.117.257-1.272.165-2.489.066-3.561-.739a.402.402 0 0 1-.373-.236l-.121-.127c-.544-.427-1.05-.886-1.223-1.598a.084.084 0 0 1-.03-.076c-.588-.667-.744-1.52-.932-2.337-.485-2.088-.55-4.203.008-6.281.363-1.353.876-2.67 2.165-3.472v.008c.044-.04.089-.076.135-.114.482-.6 1.203-.76 1.884-.886.85-.157 1.736-.269 2.575.13.505 0 .91.259 1.311.514.739.357 1.28.957 1.694 1.619 1.206 1.915 1.491 4.043 1.318 6.28l-.001.003Z"/><path fill="url(#d)" d="M65.663 35.958c-.013 1.59-.39 3.104-1.224 4.487-1.283 2.125-3.264 3.17-5.628 3.42-1.758.186-3.56.272-5.305-.194-2.67-.714-4.524-2.332-5.341-5.028-.274-.87-.447-1.77-.515-2.68l-.011-11.415c0-.082 0-.165.004-.248l.008-.121c.683-1.727 3.103-2.186 4.361-.835.355.38.398.836.398 1.307.007 3.518 0 7.036.013 10.552 0 1.153.18 2.263.848 3.254.533.791 1.292 1.258 2.173 1.481 1.476.376 2.883.192 4.074-.848 1.004-.875 1.39-2.05 1.399-3.334.025-3.68.014-7.362.011-11.043 0-.67.2-1.24.724-1.677.834-.693 3.07-.5 3.737.345.237.298.287.676.287 1.043.004 3.845.018 7.69-.013 11.534Z"/><path fill="url(#e)" d="M43.682 26.369c-.005 5.113-.005 10.226 0 15.339 0 .946-.685 1.613-1.627 1.616-.49 0-.98-.003-1.472-.01-1.083-.015-1.673-.592-1.673-1.662 0-2.291-.015-4.582.024-6.872.01-.615-.158-.81-.785-.812-2.535 0-5.07-.047-7.604-.107-.48-.011-.647.106-.625.606.122 2.785.472 5.525 1.53 8.131.122.299.315.568.475.851-.16.399-.43.264-.706.156-1.385-.544-2.247-1.634-2.985-2.852-.944-1.548-1.47-3.255-1.819-5.02a17.687 17.687 0 0 1-.339-4.613c.073-1.102.235-2.01.379-3.073.02-.15.051-.297.093-.443.018-.062.044-.123.063-.185.118-.417.263-.827.436-1.225.095-.266.215-.522.36-.765a1.79 1.79 0 0 1 .265-.363c.166-.175.324-.357.485-.538.235-.263.506-.491.805-.678.43-.27.88-.496 1.405-.579.546-.083.661.008.48.522-.686 1.995-.855 4.063-.93 6.15-.021.604.19.762.771.756 2.516-.025 5.031-.013 7.547.006.381 0 .656-.05.656-.496 0-1.776.28-3.548.04-5.325-.041-.298-.104-.596-.37-.739-.504-.269-.237-.506 0-.737 1.312-1.27 3.462-.925 4.463.704.429.675.657 1.458.658 2.257Z"/><path fill="url(#f)" d="M23.023 39.11c.21.959.806 1.694 1.33 2.48.712 1.066 1.218 1.901 2.458 2.43.054.028.422.247.476.276l.194.083c.127.031.248.088.354.165.088.062.174.097.242-.012.143-.228-.115-.313-.304-.372a.704.704 0 0 1-.232-.138c-.763-.737-1.554-1.45-2.118-2.363-.383-.62-.732-1.262-1.095-1.895v-.005l-.725-1.847c-.083-.268-.128-.43-.248-.75-.007-.042-.014-.064-.021-.104a18.675 18.675 0 0 0-.438-2.207l-.05-.371c0-.817 0-1.633.006-2.45a5.996 5.996 0 0 1 1.08-3.389 5.93 5.93 0 0 1 1.35-1.451c0 .18.026.269-.004.33-.487 1.013-.612 2.104-.678 3.203-.178 3.004.355 5.894 1.47 8.679.617 1.538 1.374 2.996 2.728 4.05a7.72 7.72 0 0 0 2.637 1.35c.053.26-.189.388-.264.59-1.707.718-3.395.468-5.042-.177-2.585-1.011-4.161-2.984-5-5.563-.215-.661-.14-1.463.047-2.091a2.38 2.38 0 0 1 .598-1.017c.126-.125.255-.223.34-.215.076.453.213.894.407 1.311.036.081.067.164.095.248.004.01.008.02.013.028.034.155.083.306.145.452.024.057.073.097.082.157.118.38.166.579.166.579"/></g><defs><linearGradient id="b" x1="93.203" x2="70.596" y1="39.956" y2="27.803" gradientUnits="userSpaceOnUse"><stop offset=".33" stop-color="#9C8837"/><stop offset=".56" stop-color="#F7E59E"/><stop offset=".6" stop-color="#F0DE96"/><stop offset=".67" stop-color="#DECB80"/><stop offset=".75" stop-color="#C1AD5D"/><stop offset=".79" stop-color="#B39F4D"/></linearGradient><linearGradient id="c" x1="120.251" x2="92.229" y1="42.252" y2="25.566" gradientUnits="userSpaceOnUse"><stop offset=".33" stop-color="#9C8837"/><stop offset=".56" stop-color="#F7E59E"/><stop offset=".6" stop-color="#F0DE96"/><stop offset=".67" stop-color="#DECB80"/><stop offset=".75" stop-color="#C1AD5D"/><stop offset=".79" stop-color="#B39F4D"/></linearGradient><linearGradient id="d" x1="67.879" x2="45.206" y1="38.822" y2="24.496" gradientUnits="userSpaceOnUse"><stop offset=".33" stop-color="#9C8837"/><stop offset=".56" stop-color="#F7E59E"/><stop offset=".6" stop-color="#F0DE96"/><stop offset=".67" stop-color="#DECB80"/><stop offset=".75" stop-color="#C1AD5D"/><stop offset=".79" stop-color="#B39F4D"/></linearGradient><linearGradient id="e" x1="39.335" x2="24.924" y1="35.487" y2="24.51" gradientUnits="userSpaceOnUse"><stop offset=".33" stop-color="#9C8837"/><stop offset=".56" stop-color="#F7E59E"/><stop offset=".6" stop-color="#F0DE96"/><stop offset=".67" stop-color="#DECB80"/><stop offset=".75" stop-color="#C1AD5D"/><stop offset=".79" stop-color="#B39F4D"/></linearGradient><linearGradient id="f" x1="33.749" x2="19.234" y1="42.582" y2="31.703" gradientUnits="userSpaceOnUse"><stop offset=".33" stop-color="#9C8837"/><stop offset=".56" stop-color="#F7E59E"/><stop offset=".6" stop-color="#F0DE96"/><stop offset=".67" stop-color="#DECB80"/><stop offset=".75" stop-color="#C1AD5D"/><stop offset=".79" stop-color="#B39F4D"/></linearGradient></defs></svg>
